assets/GHG.sentence.1.svg

<?xml version="1.0" encoding="UTF-8"?>
<svg width="462px" height="39px" viewBox="0 0 462 39" version="1.1" xmlns="http://www.w3.org/2000/svg" xmlns:xlink="http://www.w3.org/1999/xlink">
    <!-- Generator: sketchtool 52.4 (67378) - http://www.bohemiancoding.com/sketch -->
    <title>14CA2306-0390-43B2-84B6-9827422C6D1C</title>
    <desc>Created with sketchtool.</desc>
    <defs>
        <polygon id="path-1" points="0 0.8141 71.0119 0.8141 71.0119 21.1491 0 21.1491"></polygon>
    </defs>
    <g id="Green_diet_v3" stroke="none" stroke-width="1" fill="none" fill-rule="evenodd">
        <g id="Desktop_1400" transform="translate(-281.000000, -1880.000000)">
            <g id="car" transform="translate(282.000000, 1881.000000)">
                <g id="Group-24" transform="translate(330.000000, 0.000000)">
                    <polygon id="Stroke-1" stroke="#404040" stroke-width="2" stroke-linecap="round" stroke-linejoin="round" points="16.4436 -0.0001 7.5936 10.0739 55.1526 10.0739 40.4716 -0.0001 28.5776 -0.0001"></polygon>
                    <path d="M28.5773,-0.0001 L30.8833,28.1549" id="Stroke-3" stroke="#404040" stroke-width="2" stroke-linecap="round" stroke-linejoin="round"></path>
                    <path d="M19.2707,27.9326 C19.2707,26.2536 17.9097,24.8926 16.2297,24.8926 C14.5497,24.8926 13.1887,26.2536 13.1887,27.9326 C13.1887,29.6126 14.5497,30.9736 16.2297,30.9736 C17.9097,30.9736 19.2707,29.6126 19.2707,27.9326 Z" id="Stroke-5" stroke="#404040" stroke-width="2" stroke-linecap="round" stroke-linejoin="round"></path>
                    <path d="M56.8195,27.9326 C56.8195,26.2536 55.4585,24.8926 53.7785,24.8926 C52.0985,24.8926 50.7375,26.2536 50.7375,27.9326 C50.7375,29.6126 52.0985,30.9736 53.7785,30.9736 C55.4585,30.9736 56.8195,29.6126 56.8195,27.9326 Z" id="Stroke-7" stroke="#404040" stroke-width="2" stroke-linecap="round" stroke-linejoin="round"></path>
                    <path d="M45.4865,27.2636 L24.5145,27.1086 C24.5425,27.3796 24.5565,27.6546 24.5565,27.9326 C24.5565,28.3326 24.5185,28.7226 24.4645,29.1076 L45.5695,29.2646 C45.4995,28.8296 45.4525,28.3866 45.4525,27.9326 C45.4525,27.7066 45.4685,27.4856 45.4865,27.2636" id="Fill-9" fill="#404040"></path>
                    <g id="Group-13" transform="translate(0.000000, 8.259700)">
                        <mask id="mask-2" fill="white">
                            <use xlink:href="#path-1"></use>
                        </mask>
                        <g id="Clip-12"></g>
                        <path d="M62.3879,1.9121 L55.3039,0.8261 C55.2539,0.8181 55.2029,0.8141 55.1529,0.8141 L3.7459,0.8141 C1.6809,0.8141 -0.0001,2.4951 -0.0001,4.5601 L-0.0001,16.0981 C-0.0001,18.6171 2.0489,20.6821 4.5679,20.7001 L7.9769,20.7251 C7.9329,20.3801 7.9029,20.0301 7.9029,19.6731 C7.9029,19.3521 7.9249,19.0371 7.9599,18.7251 L4.5829,18.7001 C3.1589,18.6891 1.9999,17.5221 1.9999,16.0981 L1.9999,4.5601 C1.9999,3.5981 2.7839,2.8141 3.7459,2.8141 L55.0759,2.8141 L62.0049,3.8731 C66.1299,4.8551 69.0119,8.5031 69.0119,12.7451 L69.0119,15.2001 C69.0119,16.2611 68.5979,17.2561 67.8449,18.0031 C67.0999,18.7431 66.1129,19.1491 65.0639,19.1491 L65.0339,19.1491 L62.0779,19.1281 C62.0899,19.3081 62.1059,19.4891 62.1059,19.6731 C62.1059,20.1701 62.0539,20.6531 61.9699,21.1271 L65.0179,21.1491 L65.0639,21.1491 C66.6449,21.1491 68.1309,20.5371 69.2539,19.4231 C70.3879,18.2981 71.0119,16.7981 71.0119,15.2001 L71.0119,12.7451 C71.0119,7.5731 67.4979,3.1251 62.3879,1.9121" id="Fill-11" fill="#404040" mask="url(#mask-2)"></path>
                    </g>
                    <path d="M16.2297,34.2597 C13.1047,34.2597 10.5097,31.9817 10.0007,28.9997 C9.9407,28.6527 9.9027,28.2967 9.9027,27.9327 C9.9027,27.6147 9.9337,27.3057 9.9787,26.9997 C10.4327,23.9527 13.0577,21.6067 16.2297,21.6067 C19.4337,21.6067 22.0817,24.0007 22.4947,27.0927 C22.5317,27.3677 22.5567,27.6477 22.5567,27.9327 C22.5567,28.3287 22.5157,28.7157 22.4457,29.0927 C21.8987,32.0297 19.3227,34.2597 16.2297,34.2597 M24.5147,27.1087 C24.0997,22.9037 20.5427,19.6067 16.2297,19.6067 C11.9587,19.6067 8.4327,22.8387 7.9597,26.9857 C7.9247,27.2967 7.9027,27.6127 7.9027,27.9327 C7.9027,28.2897 7.9327,28.6397 7.9767,28.9857 C8.4967,33.0807 11.9957,36.2597 16.2297,36.2597 C20.4217,36.2597 23.8897,33.1437 24.4637,29.1077 C24.5187,28.7227 24.5567,28.3327 24.5567,27.9327 C24.5567,27.6547 24.5427,27.3797 24.5147,27.1087" id="Fill-14" fill="#404040"></path>
                    <path d="M53.7785,34.2597 C50.7535,34.2597 48.2185,32.1227 47.5995,29.2797 C47.5055,28.8447 47.4525,28.3957 47.4525,27.9327 C47.4525,27.7117 47.4645,27.4937 47.4865,27.2787 C47.8145,24.0967 50.5105,21.6067 53.7785,21.6067 C57.0785,21.6067 59.7925,24.1457 60.0775,27.3717 C60.0935,27.5577 60.1055,27.7427 60.1055,27.9327 C60.1055,28.4287 60.0425,28.9077 59.9345,29.3707 C59.2805,32.1687 56.7715,34.2597 53.7785,34.2597 M62.0785,27.3877 C61.7955,23.0507 58.1855,19.6067 53.7785,19.6067 C49.4135,19.6067 45.8295,22.9857 45.4865,27.2637 C45.4685,27.4857 45.4525,27.7067 45.4525,27.9327 C45.4525,28.3867 45.4995,28.8297 45.5695,29.2647 C46.2105,33.2237 49.6415,36.2597 53.7785,36.2597 C57.8735,36.2597 61.2795,33.2857 61.9695,29.3867 C62.0535,28.9127 62.1055,28.4297 62.1055,27.9327 C62.1055,27.7487 62.0905,27.5687 62.0785,27.3877" id="Fill-16" fill="#404040"></path>
                    <path d="M20.9328,14.0781 L25.5478,14.0781" id="Stroke-18" stroke="#404040" stroke-width="2" stroke-linecap="round" stroke-linejoin="round"></path>
                    <path d="M35.5061,14.0781 L40.1221,14.0781" id="Stroke-20" stroke="#404040" stroke-width="2" stroke-linecap="round" stroke-linejoin="round"></path>
                    <path d="M1.0002,19.6796 L5.1512,19.6796 L5.1512,27.0626 L5.1512,27.9636 L4.2392,27.9636 C2.4502,27.9636 1.0002,26.5136 1.0002,24.7246 L1.0002,19.6796 Z" id="Stroke-22" stroke="#404040" stroke-width="2" stroke-linecap="round" stroke-linejoin="round"></path>
                </g>
                <path d="M0,37 L460,37" id="Path-4" stroke="#FBF5F0" stroke-width="2" stroke-linecap="round" stroke-linejoin="round" fill-rule="nonzero"></path>
                <path d="M177,37 L416.999942,37.0003465" id="Path-4" stroke="#404040" stroke-width="2" stroke-linecap="round" stroke-linejoin="round" fill-rule="nonzero"></path>
            </g>
        </g>
    </g>
</svg>

<svg height="39" viewBox="0 0 462 39" width="462" xmlns="http://www.w3.org/2000/svg" xmlns:xlink="http://www.w3.org/1999/xlink"><mask id="a" fill="#fff"><path d="m0 .8141h71.0119v20.335h-71.0119z" fill="#fff" fill-rule="evenodd"/></mask><g fill="none" fill-rule="evenodd" transform="translate(1 1)"><g transform="translate(330)"><g stroke="#404040" stroke-linecap="round" stroke-linejoin="round" stroke-width="2"><path d="m16.4436-.0001-8.85 10.074h47.559l-14.681-10.074h-11.894z"/><path d="m28.5773-.0001 2.306 28.155"/><path d="m19.2707 27.9326c0-1.679-1.361-3.04-3.041-3.04s-3.041 1.361-3.041 3.04c0 1.68 1.361 3.041 3.041 3.041s3.041-1.361 3.041-3.041z"/><path d="m56.8195 27.9326c0-1.679-1.361-3.04-3.041-3.04s-3.041 1.361-3.041 3.04c0 1.68 1.361 3.041 3.041 3.041s3.041-1.361 3.041-3.041z"/></g><path d="m45.4865 27.2636-20.972-.155c.028.271.042.546.042.824 0 .4-.038.79-.092 1.175l21.105.157c-.07-.435-.117-.878-.117-1.332 0-.226.016-.447.034-.669" fill="#404040"/><path d="m62.3879 1.9121-7.084-1.086c-.05-.008-.101-.012-.151-.012h-51.407c-2.065 0-3.746 1.681-3.746 3.746v11.538c0 2.519 2.049 4.584 4.568 4.602l3.409.025c-.044-.345-.074-.695-.074-1.052 0-.321.022-.636.057-.948l-3.377-.025c-1.424-.011-2.583-1.178-2.583-2.602v-11.538c0-.962.784-1.746 1.746-1.746h51.33l6.929 1.059c4.125.982 7.007 4.63 7.007 8.872v2.455c0 1.061-.414 2.056-1.167 2.803-.745.74-1.732 1.146-2.781 1.146h-.03l-2.956-.021c.012.18.028.361.028.545 0 .497-.052.98-.136 1.454l3.048.022h.046c1.581 0 3.067-.612 4.19-1.726 1.134-1.125 1.758-2.625 1.758-4.223v-2.455c0-5.172-3.514-9.62-8.624-10.833" fill="#404040" mask="url(#a)" transform="translate(0 8.2597)"/><path d="m16.2297 34.2597c-3.125 0-5.72-2.278-6.229-5.26-.06-.347-.098-.703-.098-1.067 0-.318.031-.627.076-.933.454-3.047 3.079-5.393 6.251-5.393 3.204 0 5.852 2.394 6.265 5.486.037.275.062.555.062.84 0 .396-.041.783-.111 1.16-.547 2.937-3.123 5.167-6.216 5.167m8.285-7.151c-.415-4.205-3.972-7.502-8.285-7.502-4.271 0-7.797 3.232-8.27 7.379-.035.311-.057.627-.057.947 0 .357.03.707.074 1.053.52 4.095 4.019 7.274 8.253 7.274 4.192 0 7.66-3.116 8.234-7.152.055-.385.093-.775.093-1.175 0-.278-.014-.553-.042-.824" fill="#404040"/><path d="m53.7785 34.2597c-3.025 0-5.56-2.137-6.179-4.98-.094-.435-.147-.884-.147-1.347 0-.221.012-.439.034-.654.328-3.182 3.024-5.672 6.292-5.672 3.3 0 6.014 2.539 6.299 5.765.016.186.028.371.028.561 0 .496-.063.975-.171 1.438-.654 2.798-3.163 4.889-6.156 4.889m8.3-6.872c-.283-4.337-3.893-7.781-8.3-7.781-4.365 0-7.949 3.379-8.292 7.657-.018.222-.034.443-.034.669 0 .454.047.897.117 1.332.641 3.959 4.072 6.995 8.209 6.995 4.095 0 7.501-2.974 8.191-6.873.084-.474.136-.957.136-1.454 0-.184-.015-.364-.027-.545" fill="#404040"/><path d="m20.9328 14.0781h4.615" stroke="#404040" stroke-linecap="round" stroke-linejoin="round" stroke-width="2"/><path d="m35.5061 14.0781h4.616" stroke="#404040" stroke-linecap="round" stroke-linejoin="round" stroke-width="2"/><path d="m1.0002 19.6796h4.151v7.383.901h-.912c-1.789 0-3.239-1.45-3.239-3.239z" stroke="#404040" stroke-linecap="round" stroke-linejoin="round" stroke-width="2"/></g><g fill-rule="nonzero" stroke-linecap="round" stroke-linejoin="round" stroke-width="2"><path d="m0 37h460" stroke="#fbf5f0"/><path d="m177 37 239.999942.0003465" stroke="#404040"/></g></g></svg>
